; generated by PrusaSlicer 2.7.1+MacOS-x64 on 2024-02-08 at 15:36:41 UTC

; 

; external perimeters extrusion width = 0.56mm
; perimeters extrusion width = 0.56mm
; infill extrusion width = 0.56mm
; solid infill extrusion width = 0.56mm
; top infill extrusion width = 0.50mm
; support material extrusion width = 0.50mm
; first layer extrusion width = 0.70mm

M104 S200 ; set temperature
;TYPE:Custom
G28 ; home all axes
G1 Z5 F5000 ; lift nozzle
M109 S200 ; set temperature and wait for it to be reached
G21 ; set units to millimeters
G90 ; use absolute coordinates
M82 ; use absolute distances for extrusion
G92 E0
; Filament gcode
M107
;LAYER_CHANGE
;Z:0.35
;HEIGHT:0.35
G1 Z.35 F7800
G1 E-2 F2400
G92 E0
G1 X100.415 Y101.253 F7800
G1 E2 F2400
;TYPE:Skirt/Brim
;WIDTH:0.7
G1 F1800
G1 X102.168 Y99.774 E2.07097
G1 X104.32 Y98.981 E2.14193
G1 X105.5 Y98.875 E2.17859
G1 X125.5 Y98.875 E2.79742
G1 X127.759 Y99.272 E2.86839
G1 X129.747 Y100.415 E2.93934
G1 X131.226 Y102.168 E3.01031
G1 X132.019 Y104.32 E3.08127
G1 X132.125 Y105.5 E3.11793
G1 X132.125 Y125.5 E3.73676
G1 X131.728 Y127.759 E3.80773
G1 X130.585 Y129.747 E3.87868
G1 X128.832 Y131.226 E3.94965
G1 X126.68 Y132.019 E4.02061
G1 X125.5 Y132.125 E4.05727
G1 X105.5 Y132.125 E4.6761
G1 X103.241 Y131.728 E4.74707
G1 X101.253 Y130.585 E4.81802
G1 X99.774 Y128.832 E4.88899
G1 X98.981 Y126.68 E4.95995
G1 X98.875 Y125.5 E4.99661
G1 X98.875 Y105.5 E5.61544
G1 X99.272 Y103.241 E5.68641
G1 X100.378 Y101.318 E5.75505
G1 E3.75505 F2400
G92 E0
G1 X123.9 Y123.9 F7800
G1 E2 F2400
;TYPE:Perimeter
;WIDTH:0.7
G1 F1800
G1 X107.1 Y123.9 E2.51981
G1 X107.1 Y107.1 E3.03962
G1 X123.9 Y107.1 E3.55943
G1 X123.9 Y115.5 E3.81934
G1 X123.9 Y123.825 E4.07693
G1 X124.525 Y124.525 F7800
G1 F1800
G1 X106.475 Y124.525 E4.63542
G1 X106.475 Y106.475 E5.19391
G1 X124.525 Y106.475 E5.7524
G1 X124.525 Y115.5 E6.03165
G1 X124.525 Y124.45 E6.30857
G1 X125.15 Y125.15 F7800
;TYPE:External perimeter
G1 F1800
G1 X105.85 Y125.15 E6.90574
G1 X105.85 Y105.85 E7.50291
G1 X125.15 Y105.85 E8.10008
G1 X125.15 Y115.5 E8.39866
G1 X125.15 Y125.075 E8.69492
G1 X124.656 Y125.149 F7800
G1 E6.69492 F2400
G92 E0
G1 X122.631 Y107.1 F7800
G1 E2 F2400
;TYPE:Solid infill
;WIDTH:0.702684
G1 F1800
G1 X123.619 Y108.087 E2.0434
G1 X123.619 Y108.975 E2.07099
G1 X122.025 Y107.381 E2.14104
G1 X121.138 Y107.381 E2.1686
G1 X123.619 Y109.862 E2.27763
G1 X123.619 Y110.75 E2.30522
G1 X120.25 Y107.381 E2.45327
G1 X119.362 Y107.381 E2.48086
G1 X123.619 Y111.638 E2.66794
G1 X123.619 Y112.525 E2.6955
G1 X118.475 Y107.381 E2.92156
G1 X117.587 Y107.381 E2.94915
G1 X123.619 Y113.413 E3.21423
G1 X123.619 Y114.3 E3.24179
G1 X116.7 Y107.381 E3.54585
G1 X115.812 Y107.381 E3.57344
G1 X123.619 Y115.188 E3.91652
G1 X123.619 Y116.075 E3.94408
G1 X114.925 Y107.381 E4.32614
G1 X114.037 Y107.381 E4.35373
G1 X123.619 Y116.963 E4.77482
G1 X123.619 Y117.85 E4.80238
G1 X113.15 Y107.381 E5.26245
G1 X112.262 Y107.381 E5.29004
G1 X123.619 Y118.738 E5.78913
G1 X123.619 Y119.625 E5.81669
G1 X111.375 Y107.381 E6.35476
G1 X110.487 Y107.381 E6.38235
G1 X123.619 Y120.513 E6.95944
G1 X123.619 Y121.4 E6.987
G1 X109.6 Y107.381 E7.60307
G1 X108.712 Y107.381 E7.63066
G1 X123.619 Y122.288 E8.28576
G1 X123.619 Y123.175 E8.31332
G1 X107.825 Y107.381 E9.0074
G1 X107.381 Y107.381 E9.0212
G1 X107.381 Y107.825 E9.035
G1 X123.175 Y123.619 E9.72908
G1 X122.288 Y123.619 E9.75664
G1 X107.381 Y108.712 E10.41174
G1 X107.381 Y109.6 E10.43933
G1 X121.4 Y123.619 E11.0554
G1 X120.513 Y123.619 E11.08296
G1 X107.381 Y110.487 E11.66005
G1 X107.381 Y111.375 E11.68764
G1 X119.625 Y123.619 E12.22571
G1 X118.738 Y123.619 E12.25327
G1 X107.381 Y112.262 E12.75236
G1 X107.381 Y113.15 E12.77995
G1 X117.85 Y123.619 E13.24002
G1 X116.963 Y123.619 E13.26758
G1 X107.381 Y114.037 E13.68867
G1 X107.381 Y114.925 E13.71626
G1 X116.075 Y123.619 E14.09832
G1 X115.188 Y123.619 E14.12588
G1 X107.381 Y115.812 E14.46896
G1 X107.381 Y116.7 E14.49655
G1 X114.3 Y123.619 E14.80061
G1 X113.412 Y123.619 E14.8282
G1 X107.381 Y117.588 E15.09324
G1 X107.381 Y118.475 E15.1208
G1 X112.525 Y123.619 E15.34686
G1 X111.637 Y123.619 E15.37445
G1 X107.381 Y119.363 E15.56148
G1 X107.381 Y120.25 E15.58904
G1 X110.75 Y123.619 E15.73709
G1 X109.862 Y123.619 E15.76468
G1 X107.381 Y121.138 E15.87371
G1 X107.381 Y122.025 E15.90127
G1 X108.975 Y123.619 E15.97132
G1 X108.087 Y123.619 E15.99891
G1 X107.1 Y122.631 E16.04231
;LAYER_CHANGE
;Z:0.36
;HEIGHT:0.01
G1 Z.36 F7800
G1 X124.098 Y124.098
;TYPE:Perimeter
;WIDTH:0.562499
G1 F3600
G1 X106.902 Y124.098 E16.05594
G1 X106.902 Y106.902 E16.06957
G1 X124.098 Y106.902 E16.0832
G1 X124.098 Y115.5 E16.09002
G1 X124.098 Y124.023 E16.09678
G1 X124.658 Y124.658 F7800
G1 F3600
G1 X106.342 Y124.658 E16.1113
G1 X106.342 Y106.342 E16.12582
G1 X124.658 Y106.342 E16.14034
G1 X124.658 Y115.5 E16.1476
G1 X124.658 Y124.583 E16.1548
G1 X125.219 Y125.219 F7800
;TYPE:External perimeter
G1 F1800
G1 X105.781 Y125.219 E16.17021
G1 X105.781 Y105.781 E16.18562
G1 X125.219 Y105.781 E16.20103
G1 X125.219 Y115.5 E16.20873
G1 X125.219 Y125.144 E16.21638
G1 X124.724 Y125.218 F7800
G1 X107.306 Y107.2
;TYPE:Solid infill
;WIDTH:0.698456
G1 F1200
G1 X107.245 Y107.138 E16.21647
G1 X107.161 Y107.161 E16.21656
G1 X107.138 Y107.245 E16.21665
G1 X107.2 Y107.306 E16.21674
G1 X107.284 Y107.284 E16.21683
;WIDTH:0.562499
G1 X107.154 Y108.179 E16.21755
G1 X108.179 Y107.154 E16.2187
G1 X108.971 Y107.154 E16.21933
G1 X107.154 Y108.971 E16.22137
G1 X107.154 Y109.764 E16.222
G1 X109.764 Y107.154 E16.22493
G1 X110.556 Y107.154 E16.22556
G1 X107.154 Y110.556 E16.22937
G1 X107.154 Y111.349 E16.23
G1 X111.349 Y107.154 E16.2347
G1 X112.141 Y107.154 E16.23533
G1 X107.154 Y112.141 E16.24092
G1 X107.154 Y112.933 E16.24155
G1 X112.933 Y107.154 E16.24803
G1 X113.726 Y107.154 E16.24866
G1 X107.154 Y113.726 E16.25603
G1 X107.154 Y114.518 E16.25666
G1 X114.518 Y107.154 E16.26492
G1 X115.311 Y107.154 E16.26555
G1 X107.154 Y115.311 E16.27469
G1 X107.154 Y116.103 E16.27532
G1 X116.103 Y107.154 E16.28535
G1 X116.896 Y107.154 E16.28598
G1 X107.154 Y116.896 E16.2969
G1 X107.154 Y117.688 E16.29753
G1 X117.688 Y107.154 E16.30934
G1 X118.481 Y107.154 E16.30997
G1 X107.154 Y118.481 E16.32267
G1 X107.154 Y119.273 E16.3233
G1 X119.273 Y107.154 E16.33689
G1 X120.066 Y107.154 E16.33752
G1 X107.154 Y120.066 E16.352
G1 X107.154 Y120.858 E16.35263
G1 X120.858 Y107.154 E16.36799
G1 X121.65 Y107.154 E16.36862
G1 X107.154 Y121.65 E16.38487
G1 X107.154 Y122.443 E16.3855
G1 X122.443 Y107.154 E16.40264
G1 X123.235 Y107.154 E16.40327
G1 X107.154 Y123.235 E16.4213
G1 X107.048 Y123.989 E16.4219
;WIDTH:0.427146
G1 X107.011 Y123.952 E16.42193
G1 X106.96 Y123.965 E16.42196
G1 X106.946 Y124.017 E16.42199
G1 X106.983 Y124.054 E16.42202
G1 X107.035 Y124.04 E16.42205
;WIDTH:0.472264
G1 X107.135 Y123.976 E16.42213
;WIDTH:0.517381
G1 X107.236 Y123.911 E16.42222
;WIDTH:0.562499
G1 X107.336 Y123.846 E16.42231
G1 X123.846 Y107.336 E16.44082
G1 X123.911 Y107.236 E16.44091
;WIDTH:0.517381
G1 X123.976 Y107.135 E16.441
;WIDTH:0.472264
G1 X124.04 Y107.035 E16.44108
;WIDTH:0.427146
G1 X123.989 Y107.048 E16.44111
G1 X123.952 Y107.011 E16.44114
G1 X123.965 Y106.96 E16.44117
G1 X124.017 Y106.946 E16.4412
G1 X124.054 Y106.983 E16.44123
G1 X123.846 Y108.129 F7800
;WIDTH:0.562499
G1 F1200
G1 X108.129 Y123.846 E16.45885
G1 X108.921 Y123.846 E16.45948
G1 X123.846 Y108.921 E16.47621
G1 X123.846 Y109.713 E16.47684
G1 X109.713 Y123.846 E16.49268
G1 X110.506 Y123.846 E16.49331
G1 X123.846 Y110.506 E16.50827
G1 X123.846 Y111.298 E16.5089
G1 X111.298 Y123.846 E16.52297
G1 X112.091 Y123.846 E16.5236
G1 X123.846 Y112.091 E16.53678
G1 X123.846 Y112.883 E16.53741
G1 X112.883 Y123.846 E16.5497
G1 X113.676 Y123.846 E16.55033
G1 X123.846 Y113.676 E16.56173
G1 X123.846 Y114.468 E16.56236
G1 X114.468 Y123.846 E16.57287
G1 X115.261 Y123.846 E16.5735
G1 X123.846 Y115.261 E16.58312
G1 X123.846 Y116.053 E16.58375
G1 X116.053 Y123.846 E16.59249
G1 X116.846 Y123.846 E16.59312
G1 X123.846 Y116.846 E16.60097
G1 X123.846 Y117.638 E16.6016
G1 X117.638 Y123.846 E16.60856
G1 X118.431 Y123.846 E16.60919
G1 X123.846 Y118.431 E16.61526
G1 X123.846 Y119.223 E16.61589
G1 X119.223 Y123.846 E16.62107
G1 X120.015 Y123.846 E16.6217
G1 X123.846 Y120.015 E16.62599
G1 X123.846 Y120.808 E16.62662
G1 X120.808 Y123.846 E16.63003
G1 X121.6 Y123.846 E16.63066
G1 X123.846 Y121.6 E16.63318
G1 X123.846 Y122.393 E16.63381
G1 X122.393 Y123.846 E16.63544
G1 X123.185 Y123.846 E16.63607
G1 X123.846 Y123.185 E16.63681
G1 X123.938 Y123.126 E16.6369
;WIDTH:0.517381
G1 X124.03 Y123.067 E16.63698
;WIDTH:0.472264
G1 X124.123 Y123.008 E16.63705
;WIDTH:0.427146
G1 X124.071 Y123.021 E16.63708
G1 X124.034 Y122.984 E16.63711
G1 X124.047 Y122.933 E16.63714
G1 X124.099 Y122.919 E16.63717
G1 X124.136 Y122.956 E16.6372
;LAYER_CHANGE
;Z:0.37
;HEIGHT:0.00999999
G1 Z.37 F7800
G1 X124.098 Y124.098
;TYPE:Perimeter
;WIDTH:0.562499
G1 F3600
G1 X106.902 Y124.098 E16.65083
G1 X106.902 Y106.902 E16.66446
G1 X124.098 Y106.902 E16.67809
G1 X124.098 Y115.5 E16.68491
G1 X124.098 Y124.023 E16.69167
G1 X124.658 Y124.658 F7800
G1 F3600
G1 X106.342 Y124.658 E16.70619
G1 X106.342 Y106.342 E16.72071
G1 X124.658 Y106.342 E16.73523
G1 X124.658 Y115.5 E16.74249
G1 X124.658 Y124.583 E16.74969
G1 X125.219 Y125.219 F7800
;TYPE:External perimeter
G1 F1800
G1 X105.781 Y125.219 E16.7651
G1 X105.781 Y105.781 E16.78051
G1 X125.219 Y105.781 E16.79592
G1 X125.219 Y115.5 E16.80362
G1 X125.219 Y125.144 E16.81127
G1 X124.724 Y125.218 F7800
G1 X107.2 Y123.694
;TYPE:Solid infill
;WIDTH:0.698456
G1 F1200
G1 X107.138 Y123.755 E16.81136
G1 X107.161 Y123.839 E16.81145
G1 X107.245 Y123.862 E16.81154
G1 X107.306 Y123.8 E16.81163
G1 X107.284 Y123.716 E16.81172
;WIDTH:0.562499
G1 X108.179 Y123.846 E16.81244
G1 X107.154 Y122.821 E16.81359
G1 X107.154 Y122.029 E16.81422
G1 X108.971 Y123.846 E16.81626
G1 X109.764 Y123.846 E16.81689
G1 X107.154 Y121.236 E16.81982
G1 X107.154 Y120.444 E16.82045
G1 X110.556 Y123.846 E16.82426
G1 X111.349 Y123.846 E16.82489
G1 X107.154 Y119.651 E16.82959
G1 X107.154 Y118.859 E16.83022
G1 X112.141 Y123.846 E16.83581
G1 X112.933 Y123.846 E16.83644
G1 X107.154 Y118.067 E16.84292
G1 X107.154 Y117.274 E16.84355
G1 X113.726 Y123.846 E16.85092
G1 X114.518 Y123.846 E16.85155
G1 X107.154 Y116.482 E16.85981
G1 X107.154 Y115.689 E16.86044
G1 X115.311 Y123.846 E16.86958
G1 X116.103 Y123.846 E16.87021
G1 X107.154 Y114.897 E16.88024
G1 X107.154 Y114.104 E16.88087
G1 X116.896 Y123.846 E16.89179
G1 X117.688 Y123.846 E16.89242
G1 X107.154 Y113.312 E16.90423
G1 X107.154 Y112.519 E16.90486
G1 X118.481 Y123.846 E16.91756
G1 X119.273 Y123.846 E16.91819
G1 X107.154 Y111.727 E16.93178
G1 X107.154 Y110.934 E16.93241
G1 X120.066 Y123.846 E16.94689
G1 X120.858 Y123.846 E16.94752
G1 X107.154 Y110.142 E16.96288
G1 X107.154 Y109.35 E16.96351
G1 X121.65 Y123.846 E16.97976
G1 X122.443 Y123.846 E16.98039
G1 X107.154 Y108.557 E16.99753
G1 X107.154 Y107.765 E16.99816
G1 X123.235 Y123.846 E17.01619
G1 X123.989 Y123.952 E17.01679
;WIDTH:0.427146
G1 X123.952 Y123.989 E17.01682
G1 X123.965 Y124.04 E17.01685
G1 X124.017 Y124.054 E17.01688
G1 X124.054 Y124.017 E17.01691
G1 X124.04 Y123.965 E17.01694
;WIDTH:0.472264
G1 X123.976 Y123.865 E17.01702
;WIDTH:0.517381
G1 X123.911 Y123.764 E17.01711
;WIDTH:0.562499
G1 X123.846 Y123.664 E17.0172
G1 X107.336 Y107.154 E17.03571
G1 X107.236 Y107.089 E17.0358
;WIDTH:0.517381
G1 X107.135 Y107.024 E17.03589
;WIDTH:0.472264
G1 X107.035 Y106.96 E17.03597
;WIDTH:0.427146
G1 X107.048 Y107.011 E17.036
G1 X107.011 Y107.048 E17.03603
G1 X106.96 Y107.035 E17.03606
G1 X106.946 Y106.983 E17.03609
G1 X106.983 Y106.946 E17.03612
G1 X108.129 Y107.154 F7800
;WIDTH:0.562499
G1 F1200
G1 X123.846 Y122.871 E17.05374
G1 X123.846 Y122.079 E17.05437
G1 X108.921 Y107.154 E17.0711
G1 X109.713 Y107.154 E17.07173
G1 X123.846 Y121.287 E17.08757
G1 X123.846 Y120.494 E17.0882
G1 X110.506 Y107.154 E17.10316
G1 X111.298 Y107.154 E17.10379
G1 X123.846 Y119.702 E17.11786
G1 X123.846 Y118.909 E17.11849
G1 X112.091 Y107.154 E17.13167
G1 X112.883 Y107.154 E17.1323
G1 X123.846 Y118.117 E17.14459
G1 X123.846 Y117.324 E17.14522
G1 X113.676 Y107.154 E17.15662
G1 X114.468 Y107.154 E17.15725
G1 X123.846 Y116.532 E17.16776
G1 X123.846 Y115.739 E17.16839
G1 X115.261 Y107.154 E17.17801
G1 X116.053 Y107.154 E17.17864
G1 X123.846 Y114.947 E17.18738
G1 X123.846 Y114.154 E17.18801
G1 X116.846 Y107.154 E17.19586
G1 X117.638 Y107.154 E17.19649
G1 X123.846 Y113.362 E17.20345
G1 X123.846 Y112.569 E17.20408
G1 X118.431 Y107.154 E17.21015
G1 X119.223 Y107.154 E17.21078
G1 X123.846 Y111.777 E17.21596
G1 X123.846 Y110.985 E17.21659
G1 X120.015 Y107.154 E17.22088
G1 X120.808 Y107.154 E17.22151
G1 X123.846 Y110.192 E17.22492
G1 X123.846 Y109.4 E17.22555
G1 X121.6 Y107.154 E17.22807
G1 X122.393 Y107.154 E17.2287
G1 X123.846 Y108.607 E17.23033
G1 X124.071 Y107.979 E17.23086
;WIDTH:0.427146
G1 X124.034 Y108.016 E17.23089
G1 X124.047 Y108.067 E17.23092
G1 X124.099 Y108.081 E17.23095
G1 X124.136 Y108.044 E17.23098
G1 X124.123 Y107.992 E17.23101
;WIDTH:0.472264
G1 X124.03 Y107.933 E17.23108
;WIDTH:0.517381
G1 X123.938 Y107.874 E17.23116
;WIDTH:0.562499
G1 X123.846 Y107.815 E17.23125
G1 X123.185 Y107.154 E17.23199
G1 X123.126 Y107.062 E17.23208
;WIDTH:0.517381
G1 X123.067 Y106.97 E17.23216
;WIDTH:0.472264
G1 X123.008 Y106.877 E17.23223
;WIDTH:0.427146
G1 X123.021 Y106.929 E17.23226
G1 X122.984 Y106.966 E17.23229
G1 X122.933 Y106.953 E17.23232
G1 X122.919 Y106.901 E17.23235
G1 X122.956 Y106.864 E17.23238
M106 S247.35
;LAYER_CHANGE
;Z:0.38
;HEIGHT:0.00999999
G1 Z.38 F7800
G1 X124.098 Y124.098
;TYPE:Perimeter
;WIDTH:0.562499
G1 F3600
G1 X106.902 Y124.098 E17.24601
G1 X106.902 Y106.902 E17.25964
G1 X124.098 Y106.902 E17.27327
G1 X124.098 Y115.5 E17.28009
G1 X124.098 Y124.023 E17.28685
G1 X124.658 Y124.658 F7800
G1 F3600
G1 X106.342 Y124.658 E17.30137
G1 X106.342 Y106.342 E17.31589
G1 X124.658 Y106.342 E17.33041
G1 X124.658 Y115.5 E17.33767
G1 X124.658 Y124.583 E17.34487
G1 X125.219 Y125.219 F7800
;TYPE:External perimeter
G1 F1800
G1 X105.781 Y125.219 E17.36028
G1 X105.781 Y105.781 E17.37569
G1 X125.219 Y105.781 E17.3911
G1 X125.219 Y115.5 E17.3988
G1 X125.219 Y125.144 E17.40645
G1 X124.724 Y125.218 F7800
G1 X107.154 Y107.154
;TYPE:Internal infill
G1 F4800
G1 X123.846 Y107.154 E17.41968
G1 X123.846 Y123.846 E17.43291
G1 X107.154 Y123.846 E17.44614
G1 X107.154 Y107.229 E17.45931
G1 X109.956 Y109.956 F7800
G1 F4800
G1 X121.044 Y109.956 E17.4681
G1 X121.044 Y121.044 E17.47689
G1 X109.956 Y121.044 E17.48568
G1 X109.956 Y110.031 E17.49441
G1 X112.758 Y112.758 F7800
G1 F4800
G1 X118.242 Y112.758 E17.49876
G1 X118.242 Y118.242 E17.50311
G1 X112.758 Y118.242 E17.50746
G1 X112.758 Y112.833 E17.51175
;LAYER_CHANGE
;Z:0.39
;HEIGHT:0.00999999
G1 Z.39 F7800
G1 X124.098 Y124.098
;TYPE:Perimeter
G1 F3600
G1 X106.902 Y124.098 E17.52538
G1 X106.902 Y106.902 E17.53901
G1 X124.098 Y106.902 E17.55264
G1 X124.098 Y115.5 E17.55946
G1 X124.098 Y124.023 E17.56622
G1 X124.658 Y124.658 F7800
G1 F3600
G1 X106.342 Y124.658 E17.58074
G1 X106.342 Y106.342 E17.59526
G1 X124.658 Y106.342 E17.60978
G1 X124.658 Y115.5 E17.61704
G1 X124.658 Y124.583 E17.62424
G1 X125.219 Y125.219 F7800
;TYPE:External perimeter
G1 F1800
G1 X105.781 Y125.219 E17.63965
G1 X105.781 Y105.781 E17.65506
G1 X125.219 Y105.781 E17.67047
G1 X125.219 Y115.5 E17.67817
G1 X125.219 Y125.144 E17.68582
G1 X124.724 Y125.218 F7800
G1 X107.154 Y107.154
;TYPE:Internal infill
G1 F4800
G1 X123.846 Y107.154 E17.69905
G1 X123.846 Y123.846 E17.71228
G1 X107.154 Y123.846 E17.72551
G1 X107.154 Y107.229 E17.73868
G1 X109.956 Y109.956 F7800
G1 F4800
G1 X121.044 Y109.956 E17.74747
G1 X121.044 Y121.044 E17.75626
G1 X109.956 Y121.044 E17.76505
G1 X109.956 Y110.031 E17.77378
G1 X112.758 Y112.758 F7800
G1 F4800
G1 X118.242 Y112.758 E17.77813
G1 X118.242 Y118.242 E17.78248
G1 X112.758 Y118.242 E17.78683
G1 X112.758 Y112.833 E17.79112
;LAYER_CHANGE
;Z:0.4
;HEIGHT:0.01
G1 Z.4 F7800
G1 X124.098 Y124.098
;TYPE:Perimeter
G1 F3600
G1 X106.902 Y124.098 E17.80475
G1 X106.902 Y106.902 E17.81838
G1 X124.098 Y106.902 E17.83201
