; generated by PrusaSlicer 2.7.1+MacOS-x64 on 2024-02-08 at 15:36:50 UTC

; 

; external perimeters extrusion width = 0.56mm
; perimeters extrusion width = 0.56mm
; infill extrusion width = 0.56mm
; solid infill extrusion width = 0.56mm
; top infill extrusion width = 0.50mm
; support material extrusion width = 0.50mm
; first layer extrusion width = 0.70mm

M104 S200 ; set temperature
;TYPE:Custom
G28 ; home all axes
G1 Z5 F5000 ; lift nozzle
M109 S200 ; set temperature and wait for it to be reached
G21 ; set units to millimeters
G90 ; use absolute coordinates
M82 ; use absolute distances for extrusion
G92 E0
; Filament gcode
M107
;LAYER_CHANGE
;Z:0.35
;HEIGHT:0.35
G1 Z.35 F7800
G1 E-2 F2400
G92 E0
G1 X100.415 Y101.253 F7800
G1 E2 F2400
;TYPE:Skirt/Brim
;WIDTH:0.7
G1 F1800
G1 X102.168 Y99.774 E2.07097
G1 X104.32 Y98.981 E2.14193
G1 X105.5 Y98.875 E2.17859
G1 X125.5 Y98.875 E2.79742
G1 X127.759 Y99.272 E2.86839
G1 X129.747 Y100.415 E2.93934
G1 X131.226 Y102.168 E3.01031
G1 X132.019 Y104.32 E3.08127
G1 X132.125 Y105.5 E3.11793
G1 X132.125 Y125.5 E3.73676
G1 X131.728 Y127.759 E3.80773
G1 X130.585 Y129.747 E3.87868
G1 X128.832 Y131.226 E3.94965
G1 X126.68 Y132.019 E4.02061
G1 X125.5 Y132.125 E4.05727
G1 X105.5 Y132.125 E4.6761
G1 X103.241 Y131.728 E4.74707
G1 X101.253 Y130.585 E4.81802
G1 X99.774 Y128.832 E4.88899
G1 X98.981 Y126.68 E4.95995
G1 X98.875 Y125.5 E4.99661
G1 X98.875 Y105.5 E5.61544
G1 X99.272 Y103.241 E5.68641
G1 X100.378 Y101.318 E5.75505
G1 E3.75505 F2400
G92 E0
G1 X123.9 Y123.9 F7800
G1 E2 F2400
;TYPE:Perimeter
;WIDTH:0.7
G1 F1800
G1 X107.1 Y123.9 E2.51981
G1 X107.1 Y107.1 E3.03962
G1 X123.9 Y107.1 E3.55943
G1 X123.9 Y115.5 E3.81934
G1 X123.9 Y123.825 E4.07693
G1 X124.525 Y124.525 F7800
G1 F1800
G1 X106.475 Y124.525 E4.63542
G1 X106.475 Y106.475 E5.19391
G1 X124.525 Y106.475 E5.7524
G1 X124.525 Y115.5 E6.03165
G1 X124.525 Y124.45 E6.30857
G1 X125.15 Y125.15 F7800
;TYPE:External perimeter
G1 F1800
G1 X105.85 Y125.15 E6.90574
G1 X105.85 Y105.85 E7.50291
G1 X125.15 Y105.85 E8.10008
G1 X125.15 Y115.5 E8.39866
G1 X125.15 Y125.075 E8.69492
G1 X124.656 Y125.149 F7800
G1 E6.69492 F2400
G92 E0
G1 X122.631 Y107.1 F7800
G1 E2 F2400
;TYPE:Solid infill
;WIDTH:0.702684
G1 F1800
G1 X123.619 Y108.087 E2.0434
G1 X123.619 Y108.975 E2.07099
G1 X122.025 Y107.381 E2.14104
G1 X121.138 Y107.381 E2.1686
G1 X123.619 Y109.862 E2.27763
G1 X123.619 Y110.75 E2.30522
G1 X120.25 Y107.381 E2.45327
G1 X119.362 Y107.381 E2.48086
G1 X123.619 Y111.638 E2.66794
G1 X123.619 Y112.525 E2.6955
G1 X118.475 Y107.381 E2.92156
G1 X117.587 Y107.381 E2.94915
G1 X123.619 Y113.413 E3.21423
G1 X123.619 Y114.3 E3.24179
G1 X116.7 Y107.381 E3.54585
G1 X115.812 Y107.381 E3.57344
G1 X123.619 Y115.188 E3.91652
G1 X123.619 Y116.075 E3.94408
G1 X114.925 Y107.381 E4.32614
G1 X114.037 Y107.381 E4.35373
G1 X123.619 Y116.963 E4.77482
G1 X123.619 Y117.85 E4.80238
G1 X113.15 Y107.381 E5.26245
G1 X112.262 Y107.381 E5.29004
G1 X123.619 Y118.738 E5.78913
G1 X123.619 Y119.625 E5.81669
G1 X111.375 Y107.381 E6.35476
G1 X110.487 Y107.381 E6.38235
G1 X123.619 Y120.513 E6.95944
G1 X123.619 Y121.4 E6.987
G1 X109.6 Y107.381 E7.60307
G1 X108.712 Y107.381 E7.63066
G1 X123.619 Y122.288 E8.28576
G1 X123.619 Y123.175 E8.31332
G1 X107.825 Y107.381 E9.0074
G1 X107.381 Y107.381 E9.0212
G1 X107.381 Y107.825 E9.035
G1 X123.175 Y123.619 E9.72908
G1 X122.288 Y123.619 E9.75664
G1 X107.381 Y108.712 E10.41174
G1 X107.381 Y109.6 E10.43933
G1 X121.4 Y123.619 E11.0554
G1 X120.513 Y123.619 E11.08296
G1 X107.381 Y110.487 E11.66005
G1 X107.381 Y111.375 E11.68764
G1 X119.625 Y123.619 E12.22571
G1 X118.738 Y123.619 E12.25327
G1 X107.381 Y112.262 E12.75236
G1 X107.381 Y113.15 E12.77995
G1 X117.85 Y123.619 E13.24002
G1 X116.963 Y123.619 E13.26758
G1 X107.381 Y114.037 E13.68867
G1 X107.381 Y114.925 E13.71626
G1 X116.075 Y123.619 E14.09832
G1 X115.188 Y123.619 E14.12588
G1 X107.381 Y115.812 E14.46896
G1 X107.381 Y116.7 E14.49655
G1 X114.3 Y123.619 E14.80061
G1 X113.412 Y123.619 E14.8282
G1 X107.381 Y117.588 E15.09324
G1 X107.381 Y118.475 E15.1208
G1 X112.525 Y123.619 E15.34686
G1 X111.637 Y123.619 E15.37445
G1 X107.381 Y119.363 E15.56148
G1 X107.381 Y120.25 E15.58904
G1 X110.75 Y123.619 E15.73709
G1 X109.862 Y123.619 E15.76468
G1 X107.381 Y121.138 E15.87371
G1 X107.381 Y122.025 E15.90127
G1 X108.975 Y123.619 E15.97132
G1 X108.087 Y123.619 E15.99891
G1 X107.1 Y122.631 E16.04231
;LAYER_CHANGE
;Z:0.75
;HEIGHT:0.4
G1 Z.75 F7800
G1 X124.265 Y124.265
;TYPE:Perimeter
;WIDTH:0.5625
G1 F3600
G1 X106.735 Y124.265 E16.51515
G1 X106.735 Y106.735 E16.98799
G1 X124.265 Y106.735 E17.46083
G1 X124.265 Y115.5 E17.69725
G1 X124.265 Y124.19 E17.93165
G1 X124.742 Y124.742 F7800
G1 F3600
G1 X106.258 Y124.742 E18.43023
G1 X106.258 Y106.258 E18.92881
G1 X124.742 Y106.258 E19.42739
G1 X124.742 Y115.5 E19.67668
G1 X124.742 Y124.667 E19.92394
G1 X125.219 Y125.219 F7800
;TYPE:External perimeter
G1 F1800
G1 X105.781 Y125.219 E20.44825
G1 X105.781 Y105.781 E20.97256
G1 X125.219 Y105.781 E21.49687
G1 X125.219 Y115.5 E21.75902
G1 X125.219 Y125.144 E22.01915
G1 X124.724 Y125.218 F7800
G1 X107.078 Y106.988
;TYPE:Solid infill
;WIDTH:0.678149
G1 F1200
G1 X107.026 Y106.935 E22.02164
G1 X106.955 Y106.955 E22.02411
G1 X106.935 Y107.026 E22.02658
G1 X106.988 Y107.078 E22.02907
G1 X107.059 Y107.059 E22.03153
;WIDTH:0.5625
G1 X106.949 Y107.821 E22.0523
G1 X107.821 Y106.949 E22.08556
G1 X108.495 Y106.949 E22.10374
G1 X106.949 Y108.495 E22.16271
G1 X106.949 Y109.169 E22.18089
G1 X109.169 Y106.949 E22.26557
G1 X109.843 Y106.949 E22.28375
G1 X106.949 Y109.843 E22.39414
G1 X106.949 Y110.517 E22.41232
G1 X110.517 Y106.949 E22.54843
G1 X111.191 Y106.949 E22.56661
G1 X106.949 Y111.191 E22.72843
G1 X106.949 Y111.865 E22.74661
G1 X111.865 Y106.949 E22.93414
G1 X112.539 Y106.949 E22.95232
G1 X106.949 Y112.539 E23.16556
G1 X106.949 Y113.213 E23.18374
G1 X113.213 Y106.949 E23.42269
G1 X113.887 Y106.949 E23.44087
G1 X106.949 Y113.887 E23.70553
G1 X106.949 Y114.562 E23.72374
G1 X114.562 Y106.949 E24.01415
G1 X115.236 Y106.949 E24.03233
G1 X106.949 Y115.236 E24.34845
G1 X106.949 Y115.91 E24.36663
G1 X115.91 Y106.949 E24.70846
G1 X116.584 Y106.949 E24.72664
G1 X106.949 Y116.584 E25.09418
G1 X106.949 Y117.258 E25.11236
G1 X117.258 Y106.949 E25.50561
G1 X117.932 Y106.949 E25.52379
G1 X106.949 Y117.932 E25.94275
G1 X106.949 Y118.606 E25.96093
G1 X118.606 Y106.949 E26.4056
G1 X119.28 Y106.949 E26.42378
G1 X106.949 Y119.28 E26.89416
G1 X106.949 Y119.954 E26.91234
G1 X119.954 Y106.949 E27.40843
G1 X120.628 Y106.949 E27.42661
G1 X106.949 Y120.628 E27.94841
G1 X106.949 Y121.303 E27.96662
G1 X121.303 Y106.949 E28.51417
G1 X121.977 Y106.949 E28.53235
G1 X106.949 Y121.977 E29.10561
G1 X106.949 Y122.651 E29.12379
G1 X122.651 Y106.949 E29.72276
G1 X123.325 Y106.949 E29.74094
G1 X106.949 Y123.325 E30.36562
G1 X106.949 Y123.999 E30.3838
G1 X123.999 Y106.949 E31.03419
G1 X124.051 Y107.571 E31.05103
G1 X107.571 Y124.051 E31.67968
G1 X108.245 Y124.051 E31.69786
G1 X124.051 Y108.245 E32.3008
G1 X124.051 Y108.919 E32.31898
G1 X108.919 Y124.051 E32.89621
G1 X109.593 Y124.051 E32.91439
G1 X124.051 Y109.593 E33.46591
G1 X124.051 Y110.268 E33.48412
G1 X110.268 Y124.051 E34.00989
G1 X110.942 Y124.051 E34.02807
G1 X124.051 Y110.942 E34.52813
G1 X124.051 Y111.616 E34.54631
G1 X111.616 Y124.051 E35.02066
G1 X112.29 Y124.051 E35.03884
G1 X124.051 Y112.29 E35.48748
G1 X124.051 Y112.964 E35.50566
G1 X112.964 Y124.051 E35.92859
G1 X113.638 Y124.051 E35.94677
G1 X124.051 Y113.638 E36.34399
G1 X124.051 Y114.312 E36.36217
G1 X114.312 Y124.051 E36.73368
G1 X114.986 Y124.051 E36.75186
G1 X124.051 Y114.986 E37.09765
G1 X124.051 Y115.66 E37.11583
G1 X115.66 Y124.051 E37.43591
G1 X116.334 Y124.051 E37.45409
G1 X124.051 Y116.334 E37.74846
G1 X124.051 Y117.009 E37.76667
G1 X117.009 Y124.051 E38.0353
G1 X117.683 Y124.051 E38.05348
G1 X124.051 Y117.683 E38.29639
G1 X124.051 Y118.357 E38.31457
G1 X118.357 Y124.051 E38.53177
G1 X119.031 Y124.051 E38.54995
G1 X124.051 Y119.031 E38.74144
G1 X124.051 Y119.705 E38.75962
G1 X119.705 Y124.051 E38.9254
G1 X120.379 Y124.051 E38.94358
G1 X124.051 Y120.379 E39.08365
G1 X124.051 Y121.053 E39.10183
G1 X121.053 Y124.051 E39.21619
G1 X121.727 Y124.051 E39.23437
G1 X124.051 Y121.727 E39.32302
G1 X124.051 Y122.401 E39.3412
G1 X122.401 Y124.051 E39.40414
G1 X123.075 Y124.051 E39.42232
G1 X124.051 Y123.075 E39.45955
G1 X124.042 Y123.942 E39.48294
;WIDTH:0.739059
G1 X123.984 Y123.884 E39.48597
G1 X123.905 Y123.905 E39.48899
G1 X123.884 Y123.984 E39.49201
G1 X123.942 Y124.042 E39.49504
G1 X124.02 Y124.02 E39.49804
;LAYER_CHANGE
;Z:1.15
;HEIGHT:0.4
G1 Z1.15 F7800
G1 X124.265 Y124.265
;TYPE:Perimeter
;WIDTH:0.5625
G1 F3600
G1 X106.735 Y124.265 E39.97088
G1 X106.735 Y106.735 E40.44372
G1 X124.265 Y106.735 E40.91656
G1 X124.265 Y115.5 E41.15298
G1 X124.265 Y124.19 E41.38738
G1 X124.742 Y124.742 F7800
G1 F3600
G1 X106.258 Y124.742 E41.88596
G1 X106.258 Y106.258 E42.38454
G1 X124.742 Y106.258 E42.88312
G1 X124.742 Y115.5 E43.13241
G1 X124.742 Y124.667 E43.37967
G1 X125.219 Y125.219 F7800
;TYPE:External perimeter
G1 F1800
G1 X105.781 Y125.219 E43.90398
G1 X105.781 Y105.781 E44.42829
G1 X125.219 Y105.781 E44.9526
G1 X125.219 Y115.5 E45.21475
G1 X125.219 Y125.144 E45.47488
G1 X124.724 Y125.218 F7800
G1 X106.988 Y123.922
;TYPE:Solid infill
;WIDTH:0.678149
G1 F1200
G1 X106.935 Y123.974 E45.47737
G1 X106.955 Y124.045 E45.47984
G1 X107.026 Y124.065 E45.48231
G1 X107.078 Y124.012 E45.4848
G1 X107.059 Y123.941 E45.48726
;WIDTH:0.5625
G1 X107.821 Y124.051 E45.50803
G1 X106.949 Y123.179 E45.54129
G1 X106.949 Y122.505 E45.55947
G1 X108.495 Y124.051 E45.61844
G1 X109.169 Y124.051 E45.63662
G1 X106.949 Y121.831 E45.7213
G1 X106.949 Y121.157 E45.73948
G1 X109.843 Y124.051 E45.84987
G1 X110.517 Y124.051 E45.86805
G1 X106.949 Y120.483 E46.00416
G1 X106.949 Y119.809 E46.02234
G1 X111.191 Y124.051 E46.18416
G1 X111.865 Y124.051 E46.20234
G1 X106.949 Y119.135 E46.38987
G1 X106.949 Y118.461 E46.40805
G1 X112.539 Y124.051 E46.62129
G1 X113.213 Y124.051 E46.63947
G1 X106.949 Y117.787 E46.87842
G1 X106.949 Y117.113 E46.8966
G1 X113.887 Y124.051 E47.16126
G1 X114.562 Y124.051 E47.17947
G1 X106.949 Y116.438 E47.46988
G1 X106.949 Y115.764 E47.48806
G1 X115.236 Y124.051 E47.80418
G1 X115.91 Y124.051 E47.82236
G1 X106.949 Y115.09 E48.16419
G1 X106.949 Y114.416 E48.18237
G1 X116.584 Y124.051 E48.54991
G1 X117.258 Y124.051 E48.56809
G1 X106.949 Y113.742 E48.96134
G1 X106.949 Y113.068 E48.97952
G1 X117.932 Y124.051 E49.39848
G1 X118.606 Y124.051 E49.41666
G1 X106.949 Y112.394 E49.86133
G1 X106.949 Y111.72 E49.87951
G1 X119.28 Y124.051 E50.34989
G1 X119.954 Y124.051 E50.36807
G1 X106.949 Y111.046 E50.86416
G1 X106.949 Y110.372 E50.88234
G1 X120.628 Y124.051 E51.40414
G1 X121.303 Y124.051 E51.42235
G1 X106.949 Y109.697 E51.9699
G1 X106.949 Y109.023 E51.98808
G1 X121.977 Y124.051 E52.56134
G1 X122.651 Y124.051 E52.57952
G1 X106.949 Y108.349 E53.17849
G1 X106.949 Y107.675 E53.19667
G1 X123.325 Y124.051 E53.82135
G1 X123.999 Y124.051 E53.83953
G1 X106.949 Y107.001 E54.48992
G1 X107.571 Y106.949 E54.50676
G1 X124.051 Y123.429 E55.13541
G1 X124.051 Y122.755 E55.15359
G1 X108.245 Y106.949 E55.75653
G1 X108.919 Y106.949 E55.77471
G1 X124.051 Y122.081 E56.35194
G1 X124.051 Y121.407 E56.37012
G1 X109.593 Y106.949 E56.92164
G1 X110.268 Y106.949 E56.93985
G1 X124.051 Y120.732 E57.46562
G1 X124.051 Y120.058 E57.4838
G1 X110.942 Y106.949 E57.98386
G1 X111.616 Y106.949 E58.00204
G1 X124.051 Y119.384 E58.47639
G1 X124.051 Y118.71 E58.49457
G1 X112.29 Y106.949 E58.94321
G1 X112.964 Y106.949 E58.96139
G1 X124.051 Y118.036 E59.38432
G1 X124.051 Y117.362 E59.4025
G1 X113.638 Y106.949 E59.79972
G1 X114.312 Y106.949 E59.8179
G1 X124.051 Y116.688 E60.18941
G1 X124.051 Y116.014 E60.20759
G1 X114.986 Y106.949 E60.55338
G1 X115.66 Y106.949 E60.57156
G1 X124.051 Y115.34 E60.89164
G1 X124.051 Y114.666 E60.90982
G1 X116.334 Y106.949 E61.20419
G1 X117.009 Y106.949 E61.2224
G1 X124.051 Y113.991 E61.49103
G1 X124.051 Y113.317 E61.50921
G1 X117.683 Y106.949 E61.75212
G1 X118.357 Y106.949 E61.7703
G1 X124.051 Y112.643 E61.9875
G1 X124.051 Y111.969 E62.00568
G1 X119.031 Y106.949 E62.19717
G1 X119.705 Y106.949 E62.21535
G1 X124.051 Y111.295 E62.38113
G1 X124.051 Y110.621 E62.39931
G1 X120.379 Y106.949 E62.53938
G1 X121.053 Y106.949 E62.55756
G1 X124.051 Y109.947 E62.67192
G1 X124.051 Y109.273 E62.6901
G1 X121.727 Y106.949 E62.77875
G1 X122.401 Y106.949 E62.79693
G1 X124.051 Y108.599 E62.85987
G1 X124.051 Y107.925 E62.87805
G1 X123.075 Y106.949 E62.91528
G1 X123.942 Y106.958 E62.93867
;WIDTH:0.739059
G1 X123.884 Y107.016 E62.9417
G1 X123.905 Y107.095 E62.94472
G1 X123.984 Y107.116 E62.94774
G1 X124.042 Y107.058 E62.95077
G1 X124.02 Y106.98 E62.95377
M106 S247.35
;LAYER_CHANGE
;Z:1.55
;HEIGHT:0.4
G1 Z1.55 F7800
G1 X124.265 Y124.265
;TYPE:Perimeter
;WIDTH:0.5625
G1 F3600
G1 X106.735 Y124.265 E63.42661
G1 X106.735 Y106.735 E63.89945
G1 X124.265 Y106.735 E64.37229
G1 X124.265 Y115.5 E64.60871
G1 X124.265 Y124.19 E64.84311
G1 X124.742 Y124.742 F7800
G1 F3600
G1 X106.258 Y124.742 E65.34169
G1 X106.258 Y106.258 E65.84027
G1 X124.742 Y106.258 E66.33885
G1 X124.742 Y115.5 E66.58814
G1 X124.742 Y124.667 E66.8354
G1 X125.219 Y125.219 F7800
;TYPE:External perimeter
G1 F1800
G1 X105.781 Y125.219 E67.35971
G1 X105.781 Y105.781 E67.88402
G1 X125.219 Y105.781 E68.40833
G1 X125.219 Y115.5 E68.67048
G1 X125.219 Y125.144 E68.93061
G1 X124.724 Y125.218 F7800
G1 X106.949 Y106.949
;TYPE:Internal infill
G1 F4800
G1 X124.051 Y106.949 E69.39191
G1 X124.051 Y124.051 E69.85321
G1 X106.949 Y124.051 E70.31451
G1 X106.949 Y107.024 E70.77379
G1 X109.332 Y109.332 F7800
G1 F4800
G1 X121.668 Y109.332 E71.10653
G1 X121.668 Y121.668 E71.43927
G1 X109.332 Y121.668 E71.77201
G1 X109.332 Y109.407 E72.10273
G1 X111.716 Y111.716 F7800
G1 F4800
G1 X119.284 Y111.716 E72.30686
G1 X119.284 Y119.284 E72.51099
G1 X111.716 Y119.284 E72.71512
G1 X111.716 Y111.791 E72.91723
G1 X114.099 Y114.099 F7800
G1 F4800
G1 X116.901 Y114.099 E72.99281
G1 X116.901 Y116.901 E73.06839
G1 X114.099 Y116.901 E73.14397
G1 X114.099 Y114.174 E73.21753
;LAYER_CHANGE
;Z:1.95
;HEIGHT:0.4
G1 Z1.95 F7800
G1 X124.265 Y124.265
;TYPE:Perimeter
G1 F3600
G1 X106.735 Y124.265 E73.69037
G1 X106.735 Y106.735 E74.16321
G1 X124.265 Y106.735 E74.63605
G1 X124.265 Y115.5 E74.87247
G1 X124.265 Y124.19 E75.10687
G1 X124.742 Y124.742 F7800
G1 F3600
G1 X106.258 Y124.742 E75.60545
G1 X106.258 Y106.258 E76.10403
G1 X124.742 Y106.258 E76.60261
G1 X124.742 Y115.5 E76.8519
G1 X124.742 Y124.667 E77.09916
G1 X125.219 Y125.219 F7800
;TYPE:External perimeter
G1 F1800
G1 X105.781 Y125.219 E77.62347
G1 X105.781 Y105.781 E78.14778
G1 X125.219 Y105.781 E78.67209
G1 X125.219 Y115.5 E78.93424
G1 X125.219 Y125.144 E79.19437
G1 X124.724 Y125.218 F7800
G1 X106.949 Y106.949
;TYPE:Internal infill
G1 F4800
G1 X124.051 Y106.949 E79.65567
G1 X124.051 Y124.051 E80.11697
G1 X106.949 Y124.051 E80.57827
G1 X106.949 Y107.024 E81.03755
G1 X109.332 Y109.332 F7800
G1 F4800
G1 X121.668 Y109.332 E81.37029
G1 X121.668 Y121.668 E81.70303
G1 X109.332 Y121.668 E82.03577
G1 X109.332 Y109.407 E82.36649
G1 X111.716 Y111.716 F7800
G1 F4800
G1 X119.284 Y111.716 E82.57062
G1 X119.284 Y119.284 E82.77475
G1 X111.716 Y119.284 E82.97888
G1 X111.716 Y111.791 E83.18099
G1 X114.099 Y114.099 F7800
G1 F4800
G1 X116.901 Y114.099 E83.25657
G1 X116.901 Y116.901 E83.33215
G1 X114.099 Y116.901 E83.40773
G1 X114.099 Y114.174 E83.48129
;LAYER_CHANGE
;Z:2.35
;HEIGHT:0.4
G1 Z2.35 F7800
G1 X124.265 Y124.265
;TYPE:Perimeter
G1 F3600
G1 X106.735 Y124.265 E83.95413
G1 X106.735 Y106.735 E84.42697
G1 X124.265 Y106.735 E84.89981
G1 X124.265 Y115.5 E85.13623
G1 X124.265 Y124.19 E85.37063
G1 X124.742 Y124.742 F7800
G1 F3600
G1 X106.258 Y124.742 E85.86921
G1 X106.258 Y106.258 E86.36779
G1 X124.742 Y106.258 E86.86637
G1 X124.742 Y115.5 E87.11566
G1 X124.742 Y124.667 E87.36292
G1 X125.219 Y125.219 F7800
;TYPE:External perimeter
G1 F1800
G1 X105.781 Y125.219 E87.88723
G1 X105.781 Y105.781 E88.41154
G1 X125.219 Y105.781 E88.93585
G1 X125.219 Y115.5 E89.198
G1 X125.219 Y125.144 E89.45813
